static/img/kroki/245e86d8d216421f2d00cde8c6f33aa5.svg

<?xml version="1.0" encoding="us-ascii" standalone="no"?><svg xmlns="http://www.w3.org/2000/svg" xmlns:xlink="http://www.w3.org/1999/xlink" contentStyleType="text/css" height="793px" preserveAspectRatio="none" style="width:360px;height:793px;" version="1.1" viewBox="0 0 360 793" width="360px" zoomAndPan="magnify"><defs/><g><!--class aws_glacier_vault--><g id="elem_aws_glacier_vault"><rect codeLine="22" fill="#3D176E" height="152.9766" id="aws_glacier_vault" rx="2.5" ry="2.5" style="stroke:#000D19;stroke-width:0.5;" width="346" x="7" y="633.84"/><ellipse cx="96.25" cy="653.7345" fill="#ADD1B2" rx="11" ry="11" style="stroke:#181818;stroke-width:1.0;"/><path d="M99.2188,659.3752 Q98.6406,659.672 98,659.8127 Q97.3594,659.9689 96.6563,659.9689 Q94.1563,659.9689 92.8281,658.3283 Q91.5156,656.672 91.5156,653.547 Q91.5156,650.422 92.8281,648.7658 Q94.1563,647.1095 96.6563,647.1095 Q97.3594,647.1095 98,647.2658 Q98.6563,647.422 99.2188,647.7189 L99.2188,650.4377 Q98.5938,649.8595 98,649.5939 Q97.4063,649.3127 96.7813,649.3127 Q95.4375,649.3127 94.75,650.3908 Q94.0625,651.4533 94.0625,653.547 Q94.0625,655.6408 94.75,656.7189 Q95.4375,657.7814 96.7813,657.7814 Q97.4063,657.7814 98,657.5158 Q98.5938,657.2345 99.2188,656.6564 L99.2188,659.3752 Z " fill="#000000"/><text fill="#D9B8FF" font-family="Helvetica" font-size="17" lengthAdjust="spacing" textLength="149" x="121.75" y="659.6198">aws_glacier_vault</text><line style="stroke:#000D19;stroke-width:0.5;" x1="8" x2="352" y1="673.6291" y2="673.6291"/><text fill="#D9B8FF" font-family="sans-serif" font-size="14" font-weight="bold" lengthAdjust="spacing" textLength="168" x="18" y="695.6242">glacier_access_policy</text><text fill="#D9B8FF" font-family="sans-serif" font-size="14" lengthAdjust="spacing" textLength="156" x="186" y="695.6242">: dictionary[string, any]</text><text fill="#D9B8FF" font-family="sans-serif" font-size="14" font-weight="bold" lengthAdjust="spacing" textLength="212" x="18" y="721.9211">glacier_last_inventory_date</text><text fill="#D9B8FF" font-family="sans-serif" font-size="14" lengthAdjust="spacing" textLength="48" x="230" y="721.9211">: string</text><text fill="#D9B8FF" font-family="sans-serif" font-size="14" font-weight="bold" lengthAdjust="spacing" textLength="218" x="18" y="748.2179">glacier_number_of_archives</text><text fill="#D9B8FF" font-family="sans-serif" font-size="14" lengthAdjust="spacing" textLength="44" x="236" y="748.2179">: int64</text><text fill="#D9B8FF" font-family="sans-serif" font-size="14" font-weight="bold" lengthAdjust="spacing" textLength="164" x="18" y="774.5148">glacier_size_in_bytes</text><text fill="#D9B8FF" font-family="sans-serif" font-size="14" lengthAdjust="spacing" textLength="44" x="182" y="774.5148">: int64</text></g><!--class aws_resource--><g id="elem_aws_resource"><rect codeLine="28" fill="#3D176E" height="74.0859" id="aws_resource" rx="2.5" ry="2.5" style="stroke:#000D19;stroke-width:0.5;" width="155" x="102.5" y="438.76"/><ellipse cx="117.5" cy="458.6545" fill="#ADD1B2" rx="11" ry="11" style="stroke:#181818;stroke-width:1.0;"/><path d="M120.4688,464.2952 Q119.8906,464.592 119.25,464.7327 Q118.6094,464.8889 117.9063,464.8889 Q115.4063,464.8889 114.0781,463.2483 Q112.7656,461.592 112.7656,458.467 Q112.7656,455.342 114.0781,453.6858 Q115.4063,452.0295 117.9063,452.0295 Q118.6094,452.0295 119.25,452.1858 Q119.9063,452.342 120.4688,452.6389 L120.4688,455.3577 Q119.8438,454.7795 119.25,454.5139 Q118.6563,454.2327 118.0313,454.2327 Q116.6875,454.2327 116,455.3108 Q115.3125,456.3733 115.3125,458.467 Q115.3125,460.5608 116,461.6389 Q116.6875,462.7014 118.0313,462.7014 Q118.6563,462.7014 119.25,462.4358 Q119.8438,462.1545 120.4688,461.5764 L120.4688,464.2952 Z " fill="#000000"/><text fill="#D9B8FF" font-family="Helvetica" font-size="17" lengthAdjust="spacing" textLength="113" x="136.5" y="464.5398">aws_resource</text><line style="stroke:#000D19;stroke-width:0.5;" x1="103.5" x2="256.5" y1="478.5491" y2="478.5491"/><text fill="#D9B8FF" font-family="sans-serif" font-size="14" font-weight="bold" lengthAdjust="spacing" textLength="26" x="113.5" y="500.5442">arn</text><text fill="#D9B8FF" font-family="sans-serif" font-size="14" lengthAdjust="spacing" textLength="48" x="139.5" y="500.5442">: string</text></g><!--class resource--><g id="elem_resource"><rect codeLine="31" fill="#3D176E" height="310.7578" id="resource" rx="2.5" ry="2.5" style="stroke:#000D19;stroke-width:0.5;" width="227" x="66.5" y="7"/><ellipse cx="135.25" cy="26.8945" fill="#ADD1B2" rx="11" ry="11" style="stroke:#181818;stroke-width:1.0;"/><path d="M138.2188,32.5352 Q137.6406,32.832 137,32.9727 Q136.3594,33.1289 135.6563,33.1289 Q133.1563,33.1289 131.8281,31.4883 Q130.5156,29.832 130.5156,26.707 Q130.5156,23.582 131.8281,21.9258 Q133.1563,20.2695 135.6563,20.2695 Q136.3594,20.2695 137,20.4258 Q137.6563,20.582 138.2188,20.8789 L138.2188,23.5977 Q137.5938,23.0195 137,22.7539 Q136.4063,22.4727 135.7813,22.4727 Q134.4375,22.4727 133.75,23.5508 Q133.0625,24.6133 133.0625,26.707 Q133.0625,28.8008 133.75,29.8789 Q134.4375,30.9414 135.7813,30.9414 Q136.4063,30.9414 137,30.6758 Q137.5938,30.3945 138.2188,29.8164 L138.2188,32.5352 Z " fill="#000000"/><text fill="#D9B8FF" font-family="Helvetica" font-size="17" lengthAdjust="spacing" textLength="71" x="160.75" y="32.7798">resource</text><line style="stroke:#000D19;stroke-width:0.5;" x1="67.5" x2="292.5" y1="46.7891" y2="46.7891"/><text fill="#D9B8FF" font-family="sans-serif" font-size="14" font-weight="bold" lengthAdjust="spacing" textLength="29" x="77.5" y="68.7842">age</text><text fill="#D9B8FF" font-family="sans-serif" font-size="14" lengthAdjust="spacing" textLength="66" x="106.5" y="68.7842">: duration</text><text fill="#D9B8FF" font-family="sans-serif" font-size="14" font-weight="bold" lengthAdjust="spacing" textLength="43" x="77.5" y="95.0811">atime</text><text fill="#D9B8FF" font-family="sans-serif" font-size="14" lengthAdjust="spacing" textLength="70" x="120.5" y="95.0811">: datetime</text><text fill="#D9B8FF" font-family="sans-serif" font-size="14" font-weight="bold" lengthAdjust="spacing" textLength="43" x="77.5" y="121.3779">ctime</text><text fill="#D9B8FF" font-family="sans-serif" font-size="14" lengthAdjust="spacing" textLength="70" x="120.5" y="121.3779">: datetime</text><text fill="#D9B8FF" font-family="sans-serif" font-size="14" font-weight="bold" lengthAdjust="spacing" textLength="14" x="77.5" y="147.6748">id</text><text fill="#D9B8FF" font-family="sans-serif" font-size="14" lengthAdjust="spacing" textLength="48" x="91.5" y="147.6748">: string</text><text fill="#D9B8FF" font-family="sans-serif" font-size="14" font-weight="bold" lengthAdjust="spacing" textLength="33" x="77.5" y="173.9717">kind</text><text fill="#D9B8FF" font-family="sans-serif" font-size="14" lengthAdjust="spacing" textLength="48" x="110.5" y="173.9717">: string</text><text fill="#D9B8FF" font-family="sans-serif" font-size="14" font-weight="bold" lengthAdjust="spacing" textLength="90" x="77.5" y="200.2686">last_access</text><text fill="#D9B8FF" font-family="sans-serif" font-size="14" lengthAdjust="spacing" textLength="66" x="167.5" y="200.2686">: duration</text><text fill="#D9B8FF" font-family="sans-serif" font-size="14" font-weight="bold" lengthAdjust="spacing" textLength="90" x="77.5" y="226.5654">last_update</text><text fill="#D9B8FF" font-family="sans-serif" font-size="14" lengthAdjust="spacing" textLength="66" x="167.5" y="226.5654">: duration</text><text fill="#D9B8FF" font-family="sans-serif" font-size="14" font-weight="bold" lengthAdjust="spacing" textLength="48" x="77.5" y="252.8623">mtime</text><text fill="#D9B8FF" font-family="sans-serif" font-size="14" lengthAdjust="spacing" textLength="70" x="125.5" y="252.8623">: datetime</text><text fill="#D9B8FF" font-family="sans-serif" font-size="14" font-weight="bold" lengthAdjust="spacing" textLength="43" x="77.5" y="279.1592">name</text><text fill="#D9B8FF" font-family="sans-serif" font-size="14" lengthAdjust="spacing" textLength="48" x="120.5" y="279.1592">: string</text><text fill="#D9B8FF" font-family="sans-serif" font-size="14" font-weight="bold" lengthAdjust="spacing" textLength="34" x="77.5" y="305.4561">tags</text><text fill="#D9B8FF" font-family="sans-serif" font-size="14" lengthAdjust="spacing" textLength="171" x="111.5" y="305.4561">: dictionary[string, string]</text></g><!--reverse link aws_resource to aws_glacier_vault--><g id="link_aws_resource_aws_glacier_vault"><path codeLine="43" d="M180,531.13 C180,563.19 180,592.97 180,633.35 " fill="none" id="aws_resource-backto-aws_glacier_vault" style="stroke:#FFAF37;stroke-width:2.0;"/><polygon fill="none" points="180,513.13,174,531.13,186,531.13,180,513.13" style="stroke:#FFAF37;stroke-width:2.0;"/></g><!--reverse link resource to aws_resource--><g id="link_resource_aws_resource"><path codeLine="44" d="M180,336.18 C180,381.21 180,408.34 180,438.51 " fill="none" id="resource-backto-aws_resource" style="stroke:#FFAF37;stroke-width:2.0;"/><polygon fill="none" points="180,318.18,174,336.18,186,336.18,180,318.18" style="stroke:#FFAF37;stroke-width:2.0;"/></g><!--SRC=[XPDFQ-Cm4CNl-HI2ti86akrkqonxQGDbzrAMjhTIp4GQEoAsP4RZ1FVFTwzaruji9-t9vitFCs-UvArMAB0ekHO55XiaDt4xRKeWACGLaJsiRMv9dAKffEVBOV766luIk8K2nH_CzyXQmf1us6gvC-YS-1wLha7kChALKMrx9Z3Ebz1mHArpSEwAcVIcOepCgDNcCas7vB3fsRbQB2zmX5bII1_8V3vNYzKG-NBKftl_9-xrCuf57DgjPHpP78reg4zT1Y8oELgqgv_q-0-KqYOJFoFjhlL41gcdtsz1sKEWKyXTFCOn4bgkIroFjiBLfKgNH-6_fs0PaXDmS4cMWzH8oHwgdCNBP3hj593ItwQajBcMzNJwIoWjMLi3L3ywVrLCzas0gP-YJtnNJhJP-zjbgKuKC8OFMphYJ1L-aSIc2P3SwZswW6d35pyYolbJzTsIJSqny1Qv9tIs8ecDSI0JJUkmFf8rXbH545O92kkYrRpPyEurUKJJghU93xilDAktaGqcD9MgxCA8AiMHEGQAVcOCcJkHVljyyglsilZzEflDneSxEG9qqZi0]--></g></svg>

<svg xmlns="http://www.w3.org/2000/svg" width="360" height="793" viewBox="0 0 360 793"><rect width="346" height="152.977" x="7" y="633.84" fill="#3D176E" rx="2.5" ry="2.5" style="stroke:#000d19;stroke-width:.5"/><circle cx="96.25" cy="653.735" r="11" fill="#ADD1B2" style="stroke:#181818;stroke-width:1"/><path d="M99.219 659.375q-.578.297-1.219.438-.64.156-1.344.156-2.5 0-3.828-1.64-1.312-1.657-1.312-4.782t1.312-4.781q1.328-1.656 3.828-1.656.703 0 1.344.156.656.156 1.219.453v2.719q-.625-.578-1.219-.844-.594-.281-1.219-.281-1.344 0-2.031 1.078-.687 1.062-.687 3.156t.687 3.172q.688 1.062 2.031 1.062.625 0 1.219-.265.594-.281 1.219-.86z"/><text x="121.75" y="659.62" fill="#D9B8FF" font-family="Helvetica" font-size="17" textLength="149">aws_glacier_vault</text><path d="M8 673.629h344" style="stroke:#000d19;stroke-width:.5"/><text x="18" y="695.624" fill="#D9B8FF" font-family="sans-serif" font-size="14" font-weight="bold" textLength="168">glacier_access_policy</text><text x="186" y="695.624" fill="#D9B8FF" font-family="sans-serif" font-size="14" textLength="156">: dictionary[string, any]</text><text x="18" y="721.921" fill="#D9B8FF" font-family="sans-serif" font-size="14" font-weight="bold" textLength="212">glacier_last_inventory_date</text><text x="230" y="721.921" fill="#D9B8FF" font-family="sans-serif" font-size="14" textLength="48">: string</text><text x="18" y="748.218" fill="#D9B8FF" font-family="sans-serif" font-size="14" font-weight="bold" textLength="218">glacier_number_of_archives</text><text x="236" y="748.218" fill="#D9B8FF" font-family="sans-serif" font-size="14" textLength="44">: int64</text><text x="18" y="774.515" fill="#D9B8FF" font-family="sans-serif" font-size="14" font-weight="bold" textLength="164">glacier_size_in_bytes</text><text x="182" y="774.515" fill="#D9B8FF" font-family="sans-serif" font-size="14" textLength="44">: int64</text><rect width="155" height="74.086" x="102.5" y="438.76" fill="#3D176E" rx="2.5" ry="2.5" style="stroke:#000d19;stroke-width:.5"/><circle cx="117.5" cy="458.654" r="11" fill="#ADD1B2" style="stroke:#181818;stroke-width:1"/><path d="M120.469 464.295q-.578.297-1.219.438-.64.156-1.344.156-2.5 0-3.828-1.64-1.312-1.657-1.312-4.782t1.312-4.781q1.328-1.656 3.828-1.656.703 0 1.344.156.656.156 1.219.453v2.719q-.625-.579-1.219-.844-.594-.281-1.219-.281-1.344 0-2.031 1.078-.687 1.062-.687 3.156t.687 3.172q.688 1.062 2.031 1.062.625 0 1.219-.265.594-.281 1.219-.86z"/><text x="136.5" y="464.54" fill="#D9B8FF" font-family="Helvetica" font-size="17" textLength="113">aws_resource</text><path d="M103.5 478.549h153" style="stroke:#000d19;stroke-width:.5"/><text x="113.5" y="500.544" fill="#D9B8FF" font-family="sans-serif" font-size="14" font-weight="bold" textLength="26">arn</text><text x="139.5" y="500.544" fill="#D9B8FF" font-family="sans-serif" font-size="14" textLength="48">: string</text><rect width="227" height="310.758" x="66.5" y="7" fill="#3D176E" rx="2.5" ry="2.5" style="stroke:#000d19;stroke-width:.5"/><circle cx="135.25" cy="26.895" r="11" fill="#ADD1B2" style="stroke:#181818;stroke-width:1"/><path d="M138.219 32.535q-.578.297-1.219.438-.64.156-1.344.156-2.5 0-3.828-1.64-1.312-1.657-1.312-4.782t1.312-4.781q1.328-1.656 3.828-1.656.703 0 1.344.156.656.156 1.219.453v2.719q-.625-.578-1.219-.844-.594-.281-1.219-.281-1.344 0-2.031 1.078-.687 1.062-.687 3.156t.687 3.172q.688 1.062 2.031 1.062.625 0 1.219-.265.594-.281 1.219-.86z"/><text x="160.75" y="32.78" fill="#D9B8FF" font-family="Helvetica" font-size="17" textLength="71">resource</text><path d="M67.5 46.789h225" style="stroke:#000d19;stroke-width:.5"/><text x="77.5" y="68.784" fill="#D9B8FF" font-family="sans-serif" font-size="14" font-weight="bold" textLength="29">age</text><text x="106.5" y="68.784" fill="#D9B8FF" font-family="sans-serif" font-size="14" textLength="66">: duration</text><text x="77.5" y="95.081" fill="#D9B8FF" font-family="sans-serif" font-size="14" font-weight="bold" textLength="43">atime</text><text x="120.5" y="95.081" fill="#D9B8FF" font-family="sans-serif" font-size="14" textLength="70">: datetime</text><text x="77.5" y="121.378" fill="#D9B8FF" font-family="sans-serif" font-size="14" font-weight="bold" textLength="43">ctime</text><text x="120.5" y="121.378" fill="#D9B8FF" font-family="sans-serif" font-size="14" textLength="70">: datetime</text><text x="77.5" y="147.675" fill="#D9B8FF" font-family="sans-serif" font-size="14" font-weight="bold" textLength="14">id</text><text x="91.5" y="147.675" fill="#D9B8FF" font-family="sans-serif" font-size="14" textLength="48">: string</text><text x="77.5" y="173.972" fill="#D9B8FF" font-family="sans-serif" font-size="14" font-weight="bold" textLength="33">kind</text><text x="110.5" y="173.972" fill="#D9B8FF" font-family="sans-serif" font-size="14" textLength="48">: string</text><text x="77.5" y="200.269" fill="#D9B8FF" font-family="sans-serif" font-size="14" font-weight="bold" textLength="90">last_access</text><text x="167.5" y="200.269" fill="#D9B8FF" font-family="sans-serif" font-size="14" textLength="66">: duration</text><text x="77.5" y="226.565" fill="#D9B8FF" font-family="sans-serif" font-size="14" font-weight="bold" textLength="90">last_update</text><text x="167.5" y="226.565" fill="#D9B8FF" font-family="sans-serif" font-size="14" textLength="66">: duration</text><text x="77.5" y="252.862" fill="#D9B8FF" font-family="sans-serif" font-size="14" font-weight="bold" textLength="48">mtime</text><text x="125.5" y="252.862" fill="#D9B8FF" font-family="sans-serif" font-size="14" textLength="70">: datetime</text><text x="77.5" y="279.159" fill="#D9B8FF" font-family="sans-serif" font-size="14" font-weight="bold" textLength="43">name</text><text x="120.5" y="279.159" fill="#D9B8FF" font-family="sans-serif" font-size="14" textLength="48">: string</text><text x="77.5" y="305.456" fill="#D9B8FF" font-family="sans-serif" font-size="14" font-weight="bold" textLength="34">tags</text><text x="111.5" y="305.456" fill="#D9B8FF" font-family="sans-serif" font-size="14" textLength="171">: dictionary[string, string]</text><path fill="none" d="M180 531.13v102.22m0-120.22-6 18h12zm0-176.95v102.33m0-120.33-6 18h12z" style="stroke:#ffaf37;stroke-width:2"/></svg>
